<?xml version="1.0" encoding="UTF-8"?>
<map version="1.0" tiledversion="1.0.3" orientation="orthogonal" renderorder="right-down" width="15" height="25" tilewidth="16" tileheight="16" nextobjectid="1">
 <tileset firstgid="1" name="Basic" tilewidth="16" tileheight="16" tilecount="14" columns="0">
  <grid orientation="orthogonal" width="1" height="1"/>
  <tile id="1" type="Solid">
   <image width="16" height="16" source="../images/rock1.png"/>
  </tile>
  <tile id="4" type="Solid">
   <image width="16" height="16" source="../images/wall2-2.png"/>
  </tile>
  <tile id="28" type="Door">
   <properties>
    <property name="roomId" type="int" value="5"/>
   </properties>
   <image width="16" height="16" source="../images/door1.png"/>
  </tile>
  <tile id="32" type="Start">
   <properties>
    <property name="orientation" type="int" value="2"/>
    <property name="roomId" type="int" value="3"/>
   </properties>
   <image width="16" height="16" source="../images/start-1.png"/>
  </tile>
  <tile id="33" type="Start">
   <properties>
    <property name="roomId" type="int" value="5"/>
   </properties>
   <image width="16" height="16" source="../images/start-2.png"/>
  </tile>
  <tile id="53" type="Solid">
   <image width="16" height="16" source="../images/ground2.png"/>
  </tile>
  <tile id="55" type="Solid">
   <image width="16" height="16" source="../images/wall2-3.png"/>
  </tile>
  <tile id="56" type="Solid">
   <image width="16" height="16" source="../images/wall2-4.png"/>
  </tile>
  <tile id="57" type="Solid">
   <image width="16" height="16" source="../images/wall2-5.png"/>
  </tile>
  <tile id="59" type="Solid">
   <image width="16" height="16" source="../images/wall2-6.png"/>
  </tile>
  <tile id="60" type="Solid">
   <image width="16" height="16" source="../images/wall2-7.png"/>
  </tile>
  <tile id="61" type="Solid">
   <image width="16" height="16" source="../images/wall2-8.png"/>
  </tile>
  <tile id="62" type="Solid">
   <image width="16" height="16" source="../images/wall2-9.png"/>
  </tile>
  <tile id="63" type="Door">
   <properties>
    <property name="roomId" type="int" value="3"/>
   </properties>
   <image width="16" height="16" source="../images/door1-4.png"/>
  </tile>
 </tileset>
 <layer name="Tile Layer 1" width="15" height="25">
  <data encoding="csv">
61,62,62,62,62,62,62,62,62,62,62,62,29,62,63,
5,0,0,0,0,0,0,0,0,0,0,0,34,0,56,
5,0,0,0,0,0,0,0,0,0,0,0,0,0,56,
5,0,0,0,0,0,0,2,0,0,0,0,0,0,56,
5,0,0,0,0,0,0,0,0,0,0,0,0,2,56,
5,0,0,0,0,0,0,0,0,0,0,0,0,0,56,
5,0,0,0,0,0,0,0,0,0,0,0,0,0,56,
5,0,0,0,0,0,0,0,0,0,0,0,0,0,56,
5,0,0,0,0,0,0,0,0,0,0,0,0,2,56,
5,0,0,0,0,0,2,0,0,0,0,0,0,0,56,
5,0,0,0,0,0,0,0,0,0,0,0,0,0,56,
5,0,0,2,0,0,0,0,0,0,0,0,0,0,56,
5,0,0,0,0,0,0,0,0,0,0,0,0,0,56,
5,0,0,0,0,0,0,0,0,0,0,0,0,2,56,
5,0,0,0,0,0,0,0,0,0,0,0,0,0,56,
5,0,0,0,0,0,0,0,0,0,0,0,0,0,56,
5,0,0,0,0,0,0,0,2,0,0,0,0,0,56,
5,0,2,0,0,0,0,0,0,0,0,0,0,0,56,
5,0,0,0,0,0,0,0,0,0,0,0,0,0,56,
5,0,0,2,0,0,0,0,0,0,0,0,0,0,56,
5,0,0,0,0,0,0,0,0,2,0,0,0,0,56,
5,0,0,0,0,0,0,0,0,0,0,0,0,0,56,
5,0,0,0,0,0,0,0,0,0,0,0,0,0,56,
5,0,33,0,0,2,0,0,0,0,0,0,0,0,56,
60,57,64,57,57,57,57,57,57,57,57,57,57,57,58
</data>
 </layer>
</map>
