<?xml version="1.0" encoding="UTF-8"?>
<map version="1.2" tiledversion="1.2.4" orientation="orthogonal" renderorder="right-down" width="10" height="15" tilewidth="16" tileheight="16" infinite="0" nextlayerid="2" nextobjectid="1">
 <properties>
  <property name="hint" value="It's possible to break these rocks by hitting them"/>
 </properties>
 <tileset firstgid="1" name="Basic" tilewidth="16" tileheight="16" tilecount="18" columns="0">
  <grid orientation="orthogonal" width="1" height="1"/>
  <tile id="1" type="Solid">
   <image width="16" height="16" source="../images/rock1.png"/>
  </tile>
  <tile id="2" type="Solid">
   <properties>
    <property name="lifePoints" type="int" value="2"/>
   </properties>
   <image width="16" height="16" source="../images/rock_breakable.png"/>
  </tile>
  <tile id="4" type="Solid">
   <image width="16" height="16" source="../images/wall2-2.png"/>
  </tile>
  <tile id="13" type="Modifier">
   <properties>
    <property name="moneyDelta" type="int" value="5"/>
   </properties>
   <image width="16" height="16" source="../images/money.png"/>
  </tile>
  <tile id="28" type="Door">
   <properties>
    <property name="roomId" type="int" value="12"/>
   </properties>
   <image width="16" height="16" source="../images/door1.png"/>
  </tile>
  <tile id="32" type="Start">
   <properties>
    <property name="orientation" type="int" value="2"/>
    <property name="roomId" type="int" value="10"/>
   </properties>
   <image width="16" height="16" source="../images/start-1.png"/>
  </tile>
  <tile id="33" type="Start">
   <properties>
    <property name="roomId" type="int" value="12"/>
   </properties>
   <image width="16" height="16" source="../images/start-2.png"/>
  </tile>
  <tile id="53" type="Solid">
   <image width="16" height="16" source="../images/ground2.png"/>
  </tile>
  <tile id="55" type="Solid">
   <image width="16" height="16" source="../images/wall2-3.png"/>
  </tile>
  <tile id="56" type="Solid">
   <image width="16" height="16" source="../images/wall2-4.png"/>
  </tile>
  <tile id="57" type="Solid">
   <image width="16" height="16" source="../images/wall2-5.png"/>
  </tile>
  <tile id="59" type="Solid">
   <image width="16" height="16" source="../images/wall2-6.png"/>
  </tile>
  <tile id="60" type="Solid">
   <image width="16" height="16" source="../images/wall2-7.png"/>
  </tile>
  <tile id="61" type="Solid">
   <image width="16" height="16" source="../images/wall2-8.png"/>
  </tile>
  <tile id="62" type="Solid">
   <image width="16" height="16" source="../images/wall2-9.png"/>
  </tile>
  <tile id="63" type="Door">
   <properties>
    <property name="roomId" type="int" value="10"/>
   </properties>
   <image width="16" height="16" source="../images/door1-4.png"/>
  </tile>
  <tile id="64" type="Modifier">
   <properties>
    <property name="moneyDelta" type="int" value="10"/>
   </properties>
   <image width="16" height="16" source="../images/money.png"/>
  </tile>
  <tile id="65" type="Modifier">
   <properties>
    <property name="objectId" type="int" value="2"/>
   </properties>
   <image width="16" height="16" source="../images/gem.png"/>
  </tile>
 </tileset>
 <layer id="1" name="Tile Layer 1" width="10" height="15">
  <data encoding="csv">
61,62,62,62,62,62,62,29,62,63,
5,0,0,0,0,0,0,34,3,56,
5,0,0,0,0,14,3,3,14,56,
5,0,0,3,3,3,0,0,0,56,
5,0,0,3,65,0,0,0,0,56,
5,0,0,0,0,0,0,0,0,56,
5,0,14,0,0,0,0,0,0,56,
5,0,14,0,0,0,0,14,3,56,
5,0,0,0,0,0,0,3,3,56,
5,0,0,3,0,0,0,0,14,56,
5,0,0,66,0,0,0,0,0,56,
5,3,3,3,0,0,0,0,0,56,
5,0,0,3,0,0,3,3,0,56,
5,33,0,3,0,0,0,0,0,56,
60,64,57,57,57,57,57,57,57,58
</data>
 </layer>
</map>
