<?xml version="1.0" encoding="UTF-8"?>
<map version="1.0" tiledversion="1.0.3" orientation="orthogonal" renderorder="right-down" width="12" height="20" tilewidth="16" tileheight="16" nextobjectid="1">
 <properties>
  <property name="hint" value="Oh, I can walk on this ground!"/>
 </properties>
 <tileset firstgid="1" name="Basic" tilewidth="16" tileheight="16" tilecount="30" columns="0">
  <grid orientation="orthogonal" width="1" height="1"/>
  <tile id="1" type="Solid">
   <image width="16" height="16" source="../images/rock1.png"/>
  </tile>
  <tile id="2" type="Solid">
   <properties>
    <property name="lifePoints" type="int" value="2"/>
   </properties>
   <image width="16" height="16" source="../images/rock_breakable.png"/>
  </tile>
  <tile id="4" type="Solid">
   <image width="16" height="16" source="../images/wall2-2.png"/>
  </tile>
  <tile id="13" type="Modifier">
   <properties>
    <property name="moneyDelta" type="int" value="5"/>
   </properties>
   <image width="16" height="16" source="../images/money.png"/>
  </tile>
  <tile id="32" type="Start">
   <properties>
    <property name="orientation" type="int" value="2"/>
    <property name="roomId" type="int" value="19"/>
   </properties>
   <image width="16" height="16" source="../images/start-1.png"/>
  </tile>
  <tile id="33" type="Start">
   <properties>
    <property name="orientation" type="int" value="4"/>
    <property name="roomId" type="int" value="21"/>
   </properties>
   <image width="16" height="16" source="../images/start-2.png"/>
  </tile>
  <tile id="40" type="Ground">
   <image width="16" height="16" source="../images/ground-1.png"/>
  </tile>
  <tile id="41" type="Ground">
   <image width="16" height="16" source="../images/ground-2.png"/>
  </tile>
  <tile id="42" type="Ground">
   <image width="16" height="16" source="../images/ground-3.png"/>
  </tile>
  <tile id="43" type="Ground">
   <image width="16" height="16" source="../images/ground-4.png"/>
  </tile>
  <tile id="44" type="Ground">
   <image width="16" height="16" source="../images/ground-5.png"/>
  </tile>
  <tile id="45" type="Ground">
   <image width="16" height="16" source="../images/ground-6.png"/>
  </tile>
  <tile id="46" type="Ground">
   <image width="16" height="16" source="../images/ground-7.png"/>
  </tile>
  <tile id="47" type="Ground">
   <image width="16" height="16" source="../images/ground-8.png"/>
  </tile>
  <tile id="48" type="Ground">
   <image width="16" height="16" source="../images/ground-9.png"/>
  </tile>
  <tile id="49" type="Ground">
   <image width="16" height="16" source="../images/ground-10.png"/>
  </tile>
  <tile id="50" type="Ground">
   <image width="16" height="16" source="../images/ground-11.png"/>
  </tile>
  <tile id="51" type="Ground">
   <image width="16" height="16" source="../images/ground-12.png"/>
  </tile>
  <tile id="52" type="Ground">
   <image width="16" height="16" source="../images/ground-13.png"/>
  </tile>
  <tile id="53" type="Solid">
   <image width="16" height="16" source="../images/ground2.png"/>
  </tile>
  <tile id="55" type="Solid">
   <image width="16" height="16" source="../images/wall2-3.png"/>
  </tile>
  <tile id="56" type="Solid">
   <image width="16" height="16" source="../images/wall2-4.png"/>
  </tile>
  <tile id="57" type="Solid">
   <image width="16" height="16" source="../images/wall2-5.png"/>
  </tile>
  <tile id="59" type="Solid">
   <image width="16" height="16" source="../images/wall2-6.png"/>
  </tile>
  <tile id="60" type="Solid">
   <image width="16" height="16" source="../images/wall2-7.png"/>
  </tile>
  <tile id="61" type="Solid">
   <image width="16" height="16" source="../images/wall2-8.png"/>
  </tile>
  <tile id="62" type="Solid">
   <image width="16" height="16" source="../images/wall2-9.png"/>
  </tile>
  <tile id="63" type="Door">
   <properties>
    <property name="roomId" type="int" value="19"/>
   </properties>
   <image width="16" height="16" source="../images/door1-4.png"/>
  </tile>
  <tile id="64" type="Modifier">
   <properties>
    <property name="moneyDelta" type="int" value="10"/>
   </properties>
   <image width="16" height="16" source="../images/money.png"/>
  </tile>
  <tile id="66" type="Door">
   <properties>
    <property name="roomId" type="int" value="21"/>
   </properties>
   <image width="16" height="16" source="../images/door1-2.png"/>
  </tile>
 </tileset>
 <layer name="Tile Layer 1" width="12" height="20">
  <data encoding="csv">
61,62,62,62,62,62,62,62,62,62,62,63,
5,49,49,49,49,47,0,0,0,0,0,56,
5,41,41,41,41,45,0,44,43,0,0,56,
5,0,0,0,0,0,0,42,45,0,34,67,
5,0,0,14,0,0,0,0,0,0,0,56,
5,0,0,0,44,46,46,46,46,43,0,56,
5,0,0,0,42,51,49,49,49,47,0,56,
5,0,0,0,0,48,49,50,41,45,0,56,
5,0,0,0,0,48,50,45,0,0,0,56,
5,0,0,0,44,53,47,0,0,0,0,56,
5,0,0,44,53,50,45,0,0,0,0,56,
5,0,44,53,49,47,0,0,0,0,0,56,
5,0,42,41,41,45,0,0,0,0,0,56,
5,0,0,0,0,0,0,0,0,0,0,56,
5,0,0,0,0,0,0,65,65,0,0,56,
5,0,0,0,0,0,0,0,0,0,0,56,
5,46,46,46,43,0,0,0,0,0,0,56,
5,41,41,51,47,0,0,0,0,0,14,56,
5,0,33,48,52,46,43,0,0,0,0,56,
60,57,64,57,57,57,57,57,57,57,57,58
</data>
 </layer>
</map>
