<?xml version="1.0" encoding="UTF-8"?>
<map version="1.0" tiledversion="1.0.3" orientation="orthogonal" renderorder="right-down" width="34" height="20" tilewidth="16" tileheight="16" nextobjectid="1">
 <tileset firstgid="1" name="Basic" tilewidth="16" tileheight="16" tilecount="16" columns="0">
  <grid orientation="orthogonal" width="1" height="1"/>
  <tile id="1" type="Solid">
   <image width="16" height="16" source="../images/rock1.png"/>
  </tile>
  <tile id="2" type="Solid">
   <properties>
    <property name="lifePoints" type="int" value="5"/>
   </properties>
   <image width="16" height="16" source="../images/rock_breakable.png"/>
  </tile>
  <tile id="4" type="Solid">
   <image width="16" height="16" source="../images/wall2-2.png"/>
  </tile>
  <tile id="13" type="Modifier">
   <properties>
    <property name="moneyDelta" type="int" value="5"/>
   </properties>
   <image width="16" height="16" source="../images/money.png"/>
  </tile>
  <tile id="27" type="Door">
   <properties>
    <property name="roomId" type="int" value="20"/>
   </properties>
   <image width="16" height="16" source="../images/stairs.png"/>
  </tile>
  <tile id="32" type="Start">
   <properties>
    <property name="orientation" type="int" value="2"/>
    <property name="roomId" type="int" value="18"/>
   </properties>
   <image width="16" height="16" source="../images/start-1.png"/>
  </tile>
  <tile id="33" type="Start">
   <properties>
    <property name="roomId" type="int" value="20"/>
   </properties>
   <image width="16" height="16" source="../images/start-2.png"/>
  </tile>
  <tile id="53" type="Solid">
   <image width="16" height="16" source="../images/ground2.png"/>
  </tile>
  <tile id="55" type="Solid">
   <image width="16" height="16" source="../images/wall2-3.png"/>
  </tile>
  <tile id="56" type="Solid">
   <image width="16" height="16" source="../images/wall2-4.png"/>
  </tile>
  <tile id="57" type="Solid">
   <image width="16" height="16" source="../images/wall2-5.png"/>
  </tile>
  <tile id="59" type="Solid">
   <image width="16" height="16" source="../images/wall2-6.png"/>
  </tile>
  <tile id="60" type="Solid">
   <image width="16" height="16" source="../images/wall2-7.png"/>
  </tile>
  <tile id="61" type="Solid">
   <image width="16" height="16" source="../images/wall2-8.png"/>
  </tile>
  <tile id="62" type="Solid">
   <image width="16" height="16" source="../images/wall2-9.png"/>
  </tile>
  <tile id="63" type="Door">
   <properties>
    <property name="roomId" type="int" value="18"/>
   </properties>
   <image width="16" height="16" source="../images/door1-4.png"/>
  </tile>
 </tileset>
 <layer name="Tile Layer 1" width="34" height="20">
  <data encoding="csv">
61,62,62,62,62,28,62,62,62,62,62,62,62,62,62,62,62,62,62,62,62,62,62,62,62,62,62,62,62,62,62,62,62,63,
5,14,14,14,14,34,2,14,2,14,14,14,14,14,14,3,0,0,0,0,0,2,0,0,0,0,0,0,2,0,0,0,0,56,
5,14,2,2,2,14,2,0,2,2,2,2,2,2,0,3,0,0,0,0,0,0,0,0,0,0,0,0,0,0,0,0,0,56,
5,14,14,14,14,14,2,14,14,14,14,0,14,14,0,3,0,0,0,0,0,0,0,0,0,0,2,0,0,0,0,0,0,56,
5,2,0,2,2,0,2,2,2,2,2,2,2,2,2,2,2,2,2,2,0,0,0,0,0,0,0,0,0,2,0,2,0,56,
5,3,0,3,3,0,2,14,0,3,0,0,14,0,3,0,0,0,0,0,2,0,0,2,0,0,0,0,0,0,0,0,0,56,
5,2,0,2,2,2,2,3,2,2,2,2,2,2,2,0,0,0,0,0,0,0,0,0,0,0,0,0,0,0,0,0,0,56,
5,3,0,3,3,3,2,14,0,3,0,0,14,0,3,0,0,0,0,0,0,0,0,0,0,0,0,0,0,0,0,0,0,56,
5,2,2,0,2,2,2,2,2,2,2,2,2,2,2,2,0,0,0,0,2,0,0,0,0,0,0,0,0,0,0,0,0,56,
5,0,0,0,0,0,0,0,0,0,0,0,2,0,0,0,0,0,0,0,0,0,0,0,2,0,0,0,0,0,0,0,0,56,
5,0,0,0,0,0,0,0,0,0,0,0,0,0,0,0,0,0,0,0,0,0,0,0,0,0,0,0,0,2,0,0,0,56,
5,0,2,0,0,0,0,0,0,0,0,0,0,0,2,0,0,0,0,0,0,0,0,0,0,0,0,0,0,0,0,0,0,56,
5,0,0,0,0,0,0,0,0,0,0,0,0,2,0,0,0,0,0,0,0,0,0,0,0,0,0,2,0,0,0,0,0,56,
5,0,0,0,0,0,0,0,0,0,0,0,0,0,0,0,0,0,0,0,0,0,0,0,0,0,0,0,0,0,0,0,2,56,
5,0,0,0,0,0,0,0,0,0,0,0,0,0,0,0,0,0,0,0,0,0,0,0,0,0,0,0,0,0,0,0,0,56,
5,0,0,0,0,0,0,0,2,0,0,0,0,0,0,0,0,0,0,0,0,0,0,0,0,0,0,0,0,0,0,0,0,56,
5,0,2,0,0,0,0,0,0,0,2,0,0,0,2,0,0,0,0,0,2,0,0,0,0,0,0,0,0,0,0,0,0,56,
5,0,0,0,0,0,0,0,0,0,0,0,0,0,0,0,0,0,0,0,0,0,0,0,0,0,0,0,0,0,0,0,0,56,
5,0,0,0,0,33,0,0,0,0,0,0,0,0,0,0,0,0,0,0,0,0,0,0,0,0,0,0,2,0,0,0,0,56,
60,57,57,57,57,64,57,57,57,57,57,57,57,57,57,57,57,57,57,57,57,57,57,57,57,57,57,57,57,57,57,57,57,58
</data>
 </layer>
</map>
